X:1
T: Eleanora Robertson's Favourite
C:Nathaniel Gow
R:Jig
Q:180
K:Cm
M:6/8
L:1/16
G,2|C2c2c2 c4G2|E4F2 G2F2E2|D2B2B2 B4F2|DEF2E2 D2C2B,2|C2c2c2 c4G2|E4F2 G4g2|e2d2c2 d2c2=B2|c2C2C2 C4G,2|
C2c2c2 c4G2|E4F2 G2F2E2|D2B2B2 B4F2|DEF2E2 D2C2B,2|C2c2c2 c4G2|E4F2 G4g2|e2d2c2 d2c2=B2|c2C2C2 C4c2|
G2c2d2 e2d2c2|g2c2c2 e2d2c2|F2B2B2 d2f2=a2|b2f2d2 f2d2B2|G2c2d2 e2d2c2|g2e2c2 e2f2g2|f2a2g2 f2e2d2|e2c2c2 c4e2|
G2c2d2 e2d2c2|g2c2c2 e2d2c2|F2B2d2 f2=a2b2|f2g2e2 d2c2B2|c2d2e2 d2e2f2|e2f2g2 f2g2a2|g2f2e2 f2e2d2|e2c2c2 c4||
